.local/share/icons/Gruvbox-Plus-Dark/status/32/offline.svg

<svg xmlns="http://www.w3.org/2000/svg" width="32" height="32" version="1">
 <rect style="fill:#458588" width="28" height="28" x="-30" y="-30" rx="14" ry="14" transform="matrix(0,-1,-1,0,0,0)"/>
 <path style="opacity:0.2" d="M 16,6.9999995 C 10.477144,6.9999995 6,11.477142 6,17 6,22.522857 10.477144,27 16,27 21.522857,27 26,22.522857 26,17 26,11.477142 21.522857,6.9999995 16,6.9999995 Z m -0.935546,1.9941407 c 0.108806,-0.01139 0.245686,0.0065 0.355469,0 0.01301,0.05204 -0.07708,0.238754 -0.201172,0.509765 -0.790216,1.7262878 -0.8369,3.7475278 -0.103516,4.8281248 0.132716,0.195919 0.253907,0.38202 0.253907,0.40625 0,0.02424 -0.142858,0.05078 -0.304688,0.05078 -0.3799,1e-6 -0.740065,-0.230841 -1.474609,-0.8125 -0.326312,-0.25839 -0.749712,-0.474962 -0.914063,-0.507812 -0.258081,-0.05156 -0.326284,-0.02922 -0.660156,0.304688 -0.310635,0.310584 -0.40625,0.47934 -0.40625,0.763671 0,1.078223 1.280827,1.933146 3.660156,2.437501 3.231223,0.684838 4.026104,1.298953 4.115234,2.998047 0.111903,2.130617 -1.02133,3.736741 -3.505859,4.980469 -0.296546,0.148492 -0.484954,0.207879 -0.609375,0.255859 -0.05514,-0.0049 -0.09933,0.0049 -0.154297,0 -0.02114,-0.06587 -0.05078,-0.218244 -0.05078,-0.507812 0,-1.131635 -0.445068,-2.297836 -1.117187,-2.949219 -0.180417,-0.174873 -0.684591,-0.544709 -1.117188,-0.8125 -0.432581,-0.267775 -0.869537,-0.578221 -0.966797,-0.710937 -0.161141,-0.220234 -0.172666,-0.354868 -0.04883,-0.761719 0.22568,-0.743064 0.493412,-1.159404 1.015625,-1.628906 0.273776,-0.246141 0.548725,-0.450179 0.609375,-0.455079 0.06067,-0.0049 -0.34908,-0.129893 -0.964844,-0.255859 -0.615733,-0.12621 -1.518682,-0.390047 -1.984375,-0.558594 C 9.638669,16.260233 8.489102,15.61268 8.050781,15.14453 8.032251,15.12468 8.0161,15.11132 8,15.09375 c 0.628012,-2.501606 2.390201,-4.551008 4.726563,-5.539062 0.488855,-0.2067678 0.99342,-0.3482228 1.525391,-0.4570318 0.264977,-0.05416 0.538902,-0.0757 0.8125,-0.103516 z m 7.624999,3.8124998 c 0.191025,0.118078 0.913249,1.680238 1.119141,2.441406 0.265819,0.982672 0.246579,2.682023 0,3.658204 -0.09385,0.37154 -0.21585,0.718459 -0.25586,0.761719 -0.04001,0.04326 -0.186741,-0.203394 -0.357422,-0.50586 C 23.02462,18.85969 22.482403,18.216369 22.029297,17.738281 20.721422,16.358209 20.514655,15.638524 21.0625,14.537108 21.338782,13.9817 22.541611,12.7154 22.689453,12.80664 Z"/>
 <path style="opacity:0.2;fill:#ebdbb2" d="M 16,2 C 8.244,2 2,8.244 2,16 2,16.169 2.0195,16.333 2.0254,16.5 2.2895,8.9794 8.4132,3 16.0004,3 c 7.5872,0 13.711,5.9794 13.975,13.5 0.006,-0.16736 0.0254,-0.33116 0.0254,-0.5 0,-7.756 -6.244,-14 -14,-14 z"/>
 <path style="fill:#ebdbb2" d="m 16,5.9999995 c -5.522856,0 -10,4.4771425 -10,9.9999995 C 6,21.522857 10.477144,26 16,26 21.522857,26 26,21.522857 26,15.999999 26,10.477142 21.522857,5.9999995 16,5.9999995 Z m -0.935546,1.9941407 c 0.108806,-0.01139 0.245686,0.0065 0.355469,0 0.01301,0.05204 -0.07708,0.238754 -0.201172,0.509765 -0.790216,1.7262878 -0.8369,3.7475278 -0.103516,4.8281248 0.132716,0.195919 0.253907,0.38202 0.253907,0.40625 0,0.02424 -0.142858,0.05078 -0.304688,0.05078 -0.3799,1e-6 -0.740065,-0.230841 -1.474609,-0.8125 -0.326312,-0.25839 -0.749712,-0.474962 -0.914063,-0.507812 -0.258081,-0.05156 -0.326284,-0.02922 -0.660156,0.304688 -0.310635,0.310584 -0.40625,0.47934 -0.40625,0.763671 0,1.078223 1.280827,1.933145 3.660156,2.4375 3.231223,0.684839 4.026104,1.298954 4.115234,2.998048 0.111903,2.130617 -1.02133,3.736741 -3.505859,4.980469 -0.296546,0.148492 -0.484954,0.207879 -0.609375,0.255859 -0.05514,-0.0049 -0.09933,0.0049 -0.154297,0 -0.02114,-0.06587 -0.05078,-0.218244 -0.05078,-0.507812 0,-1.131635 -0.445068,-2.297836 -1.117187,-2.949219 -0.180417,-0.174873 -0.684591,-0.544709 -1.117188,-0.8125 -0.432581,-0.267775 -0.869537,-0.578221 -0.966797,-0.710937 -0.161141,-0.220234 -0.172666,-0.354868 -0.04883,-0.761719 0.22568,-0.743064 0.493412,-1.159404 1.015625,-1.628906 0.273776,-0.246141 0.548725,-0.450179 0.609375,-0.455079 0.06067,-0.0049 -0.34908,-0.129893 -0.964844,-0.255859 -0.615733,-0.12621 -1.518682,-0.390048 -1.984375,-0.558595 C 9.638669,15.260232 8.489102,14.61268 8.050781,14.14453 8.032251,14.12468 8.0161,14.11132 8,14.09375 c 0.628012,-2.501606 2.390201,-4.5510078 4.726563,-5.5390618 0.488855,-0.206768 0.99342,-0.348223 1.525391,-0.457032 0.264977,-0.05416 0.538902,-0.0757 0.8125,-0.103516 z m 7.624999,3.8124998 c 0.191025,0.118078 0.913249,1.680238 1.119141,2.441406 0.265819,0.982671 0.246579,2.682023 0,3.658204 -0.09385,0.37154 -0.21585,0.718459 -0.25586,0.761719 -0.04001,0.04326 -0.186741,-0.203394 -0.357422,-0.50586 C 23.02462,17.85969 22.482403,17.216369 22.029297,16.738281 20.721422,15.358208 20.514655,14.638524 21.0625,13.537108 21.338782,12.9817 22.541611,11.7154 22.689453,11.80664 Z"/>
 <path style="opacity:0.2" d="M 2.0254,16.5 C 2.0195,16.667 2,16.831 2,17 c 0,7.756 6.244,14 14,14 7.756,0 14,-6.244 14,-14 0,-0.16884 -0.01952,-0.33264 -0.02539,-0.5 -0.264,7.521 -6.388,13.5 -13.975,13.5 -7.5872,0 -13.711,-5.979 -13.975,-13.5 z"/>
 <circle style="fill:#cc241d" cx="25" cy="24" r="7"/>
 <path style="opacity:0.2" d="M 31.977,24.459 A 7,7 0 0 1 25,31 7,7 0 0 1 18.023,24.541 7,7 0 0 0 18,25 a 7,7 0 0 0 7,7 7,7 0 0 0 7,-7 7,7 0 0 0 -0.02344,-0.54102 z"/>
 <path style="fill:#ebdbb2" d="M 22.878906 20.464844 L 21.464844 21.878906 L 23.585938 24 L 21.464844 26.121094 L 22.878906 27.535156 L 25 25.414062 L 27.121094 27.535156 L 28.535156 26.121094 L 26.414062 24 L 28.535156 21.878906 L 27.121094 20.464844 L 25 22.585938 L 22.878906 20.464844 z"/>
</svg>

<svg width="32" height="32" version="1" xmlns="http://www.w3.org/2000/svg">
  <rect transform="matrix(0,-1,-1,0,0,0)" x="-30" y="-30" width="28" height="28" rx="14" ry="14" fill="#458588"/>
  <path d="m16 7c-5.5229 0-10 4.4771-10 10 0 5.5229 4.4771 10 10 10 5.5229 0 10-4.4771 10-10 0-5.5229-4.4771-10-10-10zm-0.93555 1.9941c0.10881-0.01139 0.24569 0.0065 0.35547 0 0.01301 0.05204-0.07708 0.23875-0.20117 0.50976-0.79022 1.7263-0.8369 3.7475-0.10352 4.8281 0.13272 0.19592 0.25391 0.38202 0.25391 0.40625 0 0.02424-0.14286 0.05078-0.30469 0.05078-0.3799 1e-6 -0.74006-0.23084-1.4746-0.8125-0.32631-0.25839-0.74971-0.47496-0.91406-0.50781-0.25808-0.05156-0.32628-0.02922-0.66016 0.30469-0.31064 0.31058-0.40625 0.47934-0.40625 0.76367 0 1.0782 1.2808 1.9331 3.6602 2.4375 3.2312 0.68484 4.0261 1.299 4.1152 2.998 0.1119 2.1306-1.0213 3.7367-3.5059 4.9805-0.29655 0.14849-0.48495 0.20788-0.60938 0.25586-0.05514-0.0049-0.09933 0.0049-0.1543 0-0.02114-0.06587-0.05078-0.21824-0.05078-0.50781 0-1.1316-0.44507-2.2978-1.1172-2.9492-0.18042-0.17487-0.68459-0.54471-1.1172-0.8125-0.43258-0.26778-0.86954-0.57822-0.9668-0.71094-0.16114-0.22023-0.17267-0.35487-0.04883-0.76172 0.22568-0.74306 0.49341-1.1594 1.0156-1.6289 0.27378-0.24614 0.54872-0.45018 0.60938-0.45508 0.06067-0.0049-0.34908-0.12989-0.96484-0.25586-0.61573-0.12621-1.5187-0.39005-1.9844-0.55859-0.85156-0.30812-2.0011-0.95568-2.4395-1.4238-0.01853-0.01985-0.034681-0.03321-0.050781-0.05078 0.62801-2.5016 2.3902-4.551 4.7266-5.5391 0.48886-0.20677 0.99342-0.34822 1.5254-0.45703 0.26498-0.05416 0.5389-0.0757 0.8125-0.10352zm7.625 3.8125c0.19102 0.11808 0.91325 1.6802 1.1191 2.4414 0.26582 0.98267 0.24658 2.682 0 3.6582-0.09385 0.37154-0.21585 0.71846-0.25586 0.76172s-0.18674-0.20339-0.35742-0.50586c-0.17069-0.30242-0.71291-0.94574-1.166-1.4238-1.3079-1.3801-1.5146-2.0998-0.9668-3.2012 0.27628-0.55541 1.4791-1.8217 1.627-1.7305z" fill="#282828" opacity=".3"/>
  <path d="m16 2c-7.756 0-14 6.244-14 14 0 0.169 0.0195 0.333 0.0254 0.5 0.2641-7.5206 6.3878-13.5 13.975-13.5s13.711 5.9794 13.975 13.5c6e-3 -0.16736 0.0254-0.33116 0.0254-0.5 0-7.756-6.244-14-14-14z" fill="#ebdbb2" opacity=".2"/>
  <path d="m16 6c-5.5229 0-10 4.4771-10 10 0 5.5229 4.4771 10 10 10 5.5229 0 10-4.4771 10-10 0-5.5229-4.4771-10-10-10zm-0.93555 1.9941c0.10881-0.01139 0.24569 0.0065 0.35547 0 0.01301 0.05204-0.07708 0.23875-0.20117 0.50976-0.79022 1.7263-0.8369 3.7475-0.10352 4.8281 0.13272 0.19592 0.25391 0.38202 0.25391 0.40625 0 0.02424-0.14286 0.05078-0.30469 0.05078-0.3799 1e-6 -0.74006-0.23084-1.4746-0.8125-0.32631-0.25839-0.74971-0.47496-0.91406-0.50781-0.25808-0.05156-0.32628-0.02922-0.66016 0.30469-0.31064 0.31058-0.40625 0.47934-0.40625 0.76367 0 1.0782 1.2808 1.9331 3.6602 2.4375 3.2312 0.68484 4.0261 1.299 4.1152 2.998 0.1119 2.1306-1.0213 3.7367-3.5059 4.9805-0.29655 0.14849-0.48495 0.20788-0.60938 0.25586-0.05514-0.0049-0.09933 0.0049-0.1543 0-0.02114-0.06587-0.05078-0.21824-0.05078-0.50781 0-1.1316-0.44507-2.2978-1.1172-2.9492-0.18042-0.17487-0.68459-0.54471-1.1172-0.8125-0.43258-0.26778-0.86954-0.57822-0.9668-0.71094-0.16114-0.22023-0.17267-0.35487-0.04883-0.76172 0.22568-0.74306 0.49341-1.1594 1.0156-1.6289 0.27378-0.24614 0.54872-0.45018 0.60938-0.45508 0.06067-0.0049-0.34908-0.12989-0.96484-0.25586-0.61573-0.12621-1.5187-0.39005-1.9844-0.5586-0.85156-0.30812-2.0011-0.95568-2.4395-1.4238-0.01853-0.01985-0.034681-0.03321-0.050781-0.05078 0.62801-2.5016 2.3902-4.551 4.7266-5.5391 0.48886-0.20677 0.99342-0.34822 1.5254-0.45703 0.26498-0.05416 0.5389-0.0757 0.8125-0.10352zm7.625 3.8125c0.19102 0.11808 0.91325 1.6802 1.1191 2.4414 0.26582 0.98267 0.24658 2.682 0 3.6582-0.09385 0.37154-0.21585 0.71846-0.25586 0.76172s-0.18674-0.20339-0.35742-0.50586c-0.17069-0.30242-0.71291-0.94574-1.166-1.4238-1.3079-1.3801-1.5146-2.0998-0.9668-3.2012 0.27628-0.55541 1.4791-1.8217 1.627-1.7305z" fill="#ebdbb2"/>
  <path d="m2.0254 16.5c-0.0059 0.167-0.0254 0.331-0.0254 0.5 0 7.756 6.244 14 14 14s14-6.244 14-14c0-0.16884-0.01952-0.33264-0.02539-0.5-0.264 7.521-6.388 13.5-13.975 13.5-7.5872 0-13.711-5.979-13.975-13.5z" fill="#282828" opacity=".2"/>
  <circle cx="25" cy="24" r="7" fill="#cc241d"/>
  <path d="M 31.977,24.459 A 7,7 0 0 1 25,31 7,7 0 0 1 18.023,24.541 7,7 0 0 0 18,25 a 7,7 0 0 0 7,7 7,7 0 0 0 7,-7 7,7 0 0 0 -0.02344,-0.54102 z" fill="#282828" opacity=".2"/>
  <path d="m22.879 20.465-1.4141 1.4141 2.1211 2.1211-2.1211 2.1211 1.4141 1.4141 2.1211-2.1211 2.1211 2.1211 1.4141-1.4141-2.1211-2.1211 2.1211-2.1211-1.4141-1.4141-2.1211 2.1211-2.1211-2.1211z" fill="#ebdbb2"/>
</svg>
